static/client-logos/highland-homes-logo.svg

<svg height="34" viewBox="0 0 140 34" width="140" xmlns="http://www.w3.org/2000/svg"><g fill="#fff"><path d="m64.1956525 2.0664531h-.0006777v-.80976206h7.8757531v.81247483l-.1829993.02848409c-2.3552706.35944213-2.3620486.86808664-2.3891592 3.01117551-.003389.24075842-.0067781.49982802-.0135556.77788701v9.44722402c.0067775.2726335.0101666.5317031.0135556.7717833.0271106 2.1444453.0338886 2.6530898 2.3891592 3.0125319l.1823216.0271277v.8117967h-7.8743977v-.8097621l.1796102-.0298405c2.6426476-.4387907 2.640614-.7419428 2.6202809-3.1020533-.0020331-.2122743-.0040667-.4394689-.0040667-.6822619v-3.738198h-8.3590072v3.738198c0 .242793-.0013554.4699876-.003389.6815837-.0196554 2.3607887-.0223667 2.6639408 2.6202809 3.1027315l.1796107.0298405v.8097621h-7.87372v-.8124749l.1816439-.0278059c2.3552706-.3587639 2.3620481-.8680866 2.3891592-3.0118537.003389-.2400802.0067775-.4991498.0135556-.777887v-9.44586767c-.0067781-.27398986-.0101666-.53238122-.0135556-.77313965-.0271111-2.14308887-.0338886-2.65241158-2.3891592-3.0118537l-.1816439-.0278059v-.81179664h7.87372v.80976206l-.1796107.02916229c-2.6426476.43879066-2.6399363.74194279-2.6202809 3.10340971.0020336.21159613.003389.43811245.003389.68158365v4.14714825h8.3590072v-4.14714825c0-.2434712.0020336-.47066571.0040667-.68226184.0196554-2.36078873.0230444-2.66394086-2.6202809-3.10273152zm-36.2630315-.81315303v-.00067819.00339097h7.2901551v.81450941l-.1823217.0271277c-2.3559482.35944213-2.362726.86808664-2.389837 3.01117551-.0020333.24008024-.0061.49982802-.0135555.77788701v9.44451132c.0065585.2585777.0110771.5172032.0135555.7758524.0277888 2.1430889.0345666 2.6517334 2.389837 3.0111755l.1816439.0271277v.8117967h-7.6629317v-.8124749l.1823216-.0271277c2.3545927-.3594421 2.3613705-.8687648 2.3898371-3.0118537.0020333-.2407584.0061-.4991498.0135555-.7785652v-9.44518948c-.0081333-.27398981-.0115222-.53238123-.0135555-.77313965-.0284666-2.14308887-.0352444-2.65173338-2.3898371-3.01117551l-.1491106-.02238035c-2.7477025.53577221-2.7693913 1.53678461-2.812769 4.71343914-.0047444.30247392-.0101666.62393728-.0169444.9630336v13.41668585c.0067778.334349.0115222.6551341.0169444.9582863.0447332 3.241761.0582887 4.2190366 2.9767907 4.7473487l.1762217.0311969v.7561848h-9.5024148v-.753472l.1748661-.0339097c3.2716232-.6436049 3.2682342-1.3767311 3.2519676-4.9006203-.0006777-.2543223-.0020333-.5228866-.0020333-.8050147v-13.42278959c0-.28212816.0006778-.55001424.0020333-.80433653.0162666-3.52456735.0189778-4.25701545-3.2519676-4.9012985l-.1748661-.03390963v-.75279388zm106.418913 2.99489889v.00067819c3.174023 3.12782466 3.648466 7.76869715 3.648466 10.25766425 0 1.9389529-.351088 6.8056636-3.598989 10.108462-2.034682 2.0698441-4.807462 3.1183299-8.243108 3.1183299l-.209432-.0013563-7.974708-.0786704v-.7968764l.176221-.0325532c2.795825-.5255994 2.807347-1.4872766 2.848691-4.674104.004067-.3112904.008133-.6408921.014911-.9915177v-13.26883983c-.078622-3.79787902-.114544-5.15968993-2.740925-5.77006334-1.586672.16412263-2.264448.98134481-2.320026 2.77516445-.090144 2.93250518-.210788 9.44993682-.092855 15.26883002l.002711.1742955-.606609.1593753-.0854-.1152928c-2.500314-3.3773995-5.235139-6.6442536-7.880498-9.8039533-1.198984-1.43302117-2.435247-2.91012485-3.64101-4.38722853v4.33568583c0 .7860253-.007456 1.4974495-.012878 2.1430889-.044055 4.8036388-.052866 5.8032948 2.782269 6.451647l.166733.0379788v.7975546h-12.859438v-.7934855l.1613108-.0420479c.9495636-.2488968 1.4429847-.5567962 1.3223406-1.4757473-.1091221-.8307861-2.7890468-8.85584003-4.3601308-13.48586148-.6309831 1.96252071-1.2500292 3.92886369-1.8571056 5.89891998.4654809.0689678.9335149.1194199 1.4029957.1512369l.3232987.0183112c.5584876.0339097.9617637.0590028 1.233552-.0379787.1789326-.0556119.3924319-.1220748.5083316.046117.1138666.1641227-.0081334.3390964-.1064108.4794823-.2426436.3452-.9536303.8117966-1.3148849.957608-.3029656.1410641-.5266315.1939631-.7231863.2414366-.5578094.133604-1.2796403.1186837-1.9031944.0454389-.817397 2.7154835-1.4775505 5.0627084-1.4775505 5.5476162 0 1.2973826.6838756 1.4072498 1.6300501 1.5605213.0989557.0155985.1992661.0311969.2988995.0495081l.1768994.0311968v.8084058h-16.3181272v-.8131531l.1829998-.0271277c2.3545923-.3594421 2.3613704-.8680866 2.388481-3.0111755.003389-.2407584.006778-.4991498.0135555-.7785652v-9.44722404c-.0067775-.27263349-.0101665-.53170309-.0128773-.77313967-.0277888-2.14308887-.0345669-2.65173338-2.3891592-3.0111755l-.1823221-.02712771v-.81179664h7.6629319v.81179664l-.1823215.02712771c-2.4237261.3702932-2.4203371.91284735-2.4047484 3.19428753.0006777.186503.0020336.38317884.0020336.59002764v8.80904474c0 .7900945 0 3.111548.2744991 3.8385706l2.2231041.0583246c2.9476463-.341131 4.2144093-.7792435 5.7204268-4.0467758l.0487996-.1044417.8946641-2.6747919c-.365999-.0332314-.8268863-.0644283-1.4639954-.098338-2.2414046-.1220746-3.1841901.3743624-3.350923.4747349-.1477552.0908778-.3199102.1797211-.4676654.1797211-.0804701.0023918-.1577046-.0317618-.2101104-.0929124-.1660551-.1926067.0230444-.4462508.093533-.5411977.9183863-1.3014518 2.7998911-2.01016319 5.0446842-1.88673209.3958209.02102394.7096313.04611712.9881971.07527936l2.0699267-6.18308266c.0366-.11936191.0772666-.24347117.1179333-.36486766.1735104-.52492114.3239764-.97863204.1531773-1.31501561l-.1043777-.20549238.2060436-.09630337c.8933088-.41573211 1.5338064-.88097229 1.901839-1.38215668l.2378992-.32349791 5.6255379 16.1186054c.1118329.2644952.2094326.5330595.3022879.7867036.4100542 1.1190179.6872646 1.8670644 2.0170608 2.1878496 2.321381-.3397745 2.298337-1.9328492 2.221071-6.0562607-.014234-.7839907-.031178-1.6731013-.031178-2.6449514v-4.02778639c0-2.61307639-.144366-3.55372964-2.99238-4.2712575l-.1626661-.04069155v-.79552002h4.1872981l.063033.07799216 11.217188 13.5801302-.110478-9.19222353c-.023044-2.48761078-.282633-3.12036455-2.788369-3.62833087l-.172155-.03390963v-.80365833h6.897723v.00135638l6.135903-.13021299c4.190009-.18921576 7.471799.8619829 9.762681 3.12036453zm-88.7242238 6.57914724.0006779-.0006783v-.8138312h7.0082003v.798911l-.166055.038657c-1.253885.2882319-1.2450739.7141369-1.2179629 1.978288.0027111.1858248.0074555.3852135.0074555.5995224v.0006782l-.0189777 5.3333072-.1260663.0576464c-1.9357272.8762249-3.6925218 1.4601489-5.9745924 1.4601489-5.3625611 0-9.1086272-3.8894351-9.1086272-9.4587533 0-2.84162741 1.0451301-5.40858671 2.9429019-7.22953406 1.7859389-1.7144711 4.1581537-2.65715892 6.6794792-2.65715892 1.8110166 0 3.7264106.36690223 5.5374272 1.06137154l.1423329.05425541-.1016664 5.043719h-.68862l-.0338888-.1783647c-.5591649-2.9833696-2.3105373-4.56084578-5.0663731-4.56084578-3.8118103 0-6.2762027 2.93386154-6.2762027 7.47368333 0 5.15901178 3.1760568 8.76224948 7.7239315 8.76224948.9502415 0 1.4490844-.1308912 1.6659726-.4381125.2216326-.3126468.2216326-.883685.2216326-1.6751359v-2.189206c0-2.8965609-.6147425-3.1027315-2.9666241-3.4343677zm-24.4819347.1376731c-.4527542.5893494-1.80085 1.3855476-2.4874367 1.6351225-.580176.242793-.9915858.3302799-1.3894401.4150539-1.4043512.2984048-3.3644784.1492024-4.7295186-.0901996-.5280606-.0906575-1.0596737-.1592147-1.5934506-.2054924v8.4482463c0 .2828063-.0013555.5506925-.0027111.8056929-.0155888 3.523211-.0189777 4.2556591 3.2533232 4.8999421l.1735106.0345879v.7527938h-9.50241483v-.7555066l.17622167-.0318751c2.91850199-.5289903 2.93205755-1.5062659 2.97746848-4.7473487.00474447-.302474.00948889-.6239373.01626661-.9630337v-8.6435657l-.18367719-.0101729c-4.48145269-.242793-6.37583567.6592033-6.70997907.8429935-.39378766.2163435-.64185355.2868755-.80451971.2868755-.14843287 0-.22434375-.0590028-.27246582-.1200401-.19452162-.2482185.08743306-.5934186.20807713-.7405864 1.921494-2.4787942 5.41068314-3.11629535 7.76256466-3.24515199v-1.7877159c-.00745553-.3350272-.01152214-.65513413-.01626661-.95828624-.04541093-3.24176103-.05896649-4.21971488-2.97746848-4.74734879l-.17622167-.03255324v-.75415027h9.50173703v.75279388l-.1728328.03390963c-3.2723009.64360486-3.268912 1.37673115-3.2533232 4.90062031.0013556.2543223.0027111.52220838.0027111.80569291v1.84332773c.8989275.06145616 1.7948474.16101376 2.6853472.29840475l.4405542.0576464c1.2532072.16412262 2.3349372.30586492 3.3814228.36351122l.6303314.0366224c1.1257853.0678193 1.9384384.115971 2.5172588-.067141.383621-.1064762.6398202-.1607317.7645309.0339096.1280996.2000668-.0487998.4299742-.2195993.6524214zm106.1613585 15.0341754h-.000679c3.441068 0 7.116645-2.8687551 7.116645-10.9189022 0-4.1837707-1.062752-7.39230029-3.15979-9.5374237-1.815761-1.85756977-4.383175-2.84908747-7.433166-2.8741806v18.8761369c0 2.4374245.260944 4.4543696 3.47699 4.4543696z"/><path d="m28.3569876 22.9333333h89.8441644l-3.105312 4.6229352 3.113462 4.4437315h-89.8604648l3.1107452-4.4469779zm16.6750889 6.1325313v-3.8074286h-.7219918v1.6569846h-2.4152424v-1.6569846h-.7219917v3.8074286h.7219917v-1.6693211h2.4152424v1.6686718zm13.6275092-3.8619689c-1.456888 0-2.2427247 1.0083453-2.2427247 1.9576053 0 .9499093.7858367 1.9589039 2.243404 1.9589039 1.4534924 0 2.2372913-1.0089946 2.2372913-1.9589039 0-.9486107-.7837989-1.9576053-2.2372913-1.9576053zm.0006793 3.3750024c-.8917924 0-1.490169-.5694261-1.490169-1.4173971 0-.8473217.5976978-1.4167478 1.490169-1.4167478.887717 0 1.4840562.5694261 1.4840562 1.4167478 0 .8486203-.5963392 1.4180464-1.4840562 1.4180464zm17.8134315.4869665v-3.8074286h-.675127l-1.4208903 1.6141316-1.4208908-1.6141316h-.6744477v3.8074286h.7219919v-2.8471307l1.37878 1.5647856 1.368592-1.5647856v2.8471307zm14.2041517-1.7491836v-.4369713h-1.9126329v-1.1836532h2.0050047v-.4376205h-2.7276754v3.8067793h2.7711443v-.4369712h-2.0484736v-1.3115631zm14.2482998.7103218c0-.7570706-.683277-1.0044496-1.287087-1.2226105-.436728-.1571279-.848324-.3064643-.848324-.6648716 0-.3025685.305641-.4980044.777007-.4980044.33213 0 .662901.0798625 1.167549.285687v-.4558006c-.464575-.1869952-.846286-.267507-1.25992-.267507-.872095 0-1.436512.402559-1.436512 1.0258761 0 .7726535.67241 1.0102931 1.264674 1.2200134.448273.1577771.869378.3064642.869378.6921417 0 .1272605-.055694.5402081-.777007.5402081-.423822 0-.777686-.1084312-1.270787-.4012604v.5025495c.384429.1928387.712483.3369808 1.350933.3369808.880925 0 1.450096-.4291798 1.450096-1.0934021z"/></g></svg>

<?xml version="1.0" encoding="UTF-8"?>
<svg width="140px" height="34px" viewBox="0 0 140 34" version="1.1" xmlns="http://www.w3.org/2000/svg" xmlns:xlink="http://www.w3.org/1999/xlink">
    <!-- Generator: Sketch 52.6 (67491) - http://www.bohemiancoding.com/sketch -->
    <title>highland-homes-logo</title>
    <desc>Created with Sketch.</desc>
    <g id="highland-homes-logo" stroke="none" stroke-width="1" fill="none" fill-rule="evenodd">
        <g id="Highland-homes" fill="#FFFFFF" fill-rule="nonzero">
            <path d="M64.1956525,2.0664531 L64.1949748,2.0664531 L64.1949748,1.25669104 L72.0707279,1.25669104 L72.0707279,2.06916587 L71.8877286,2.09764996 C69.532458,2.45709209 69.52568,2.9657366 69.4985694,5.10882547 C69.4951804,5.34958389 69.4917913,5.60865349 69.4850138,5.88671248 L69.4850138,15.3339365 C69.4917913,15.60657 69.4951804,15.8656396 69.4985694,16.1057198 C69.52568,18.2501651 69.532458,18.7588096 71.8877286,19.1182517 L72.0700502,19.1453794 L72.0700502,19.9571761 L64.1956525,19.9571761 L64.1956525,19.147414 L64.3752627,19.1175735 C67.0179103,18.6787828 67.0158767,18.3756307 66.9955436,16.0155202 C66.9935105,15.8032459 66.9914769,15.5760513 66.9914769,15.3332583 L66.9914769,11.5950603 L58.6324697,11.5950603 L58.6324697,15.3332583 C58.6324697,15.5760513 58.6311143,15.8032459 58.6290807,16.014842 C58.6094253,18.3756307 58.606714,18.6787828 61.2493616,19.1175735 L61.4289723,19.147414 L61.4289723,19.9571761 L53.5552523,19.9571761 L53.5552523,19.1447012 L53.7368962,19.1168953 C56.0921668,18.7581314 56.0989443,18.2488087 56.1260554,16.1050416 C56.1294444,15.8649614 56.1328329,15.6058918 56.139611,15.3271546 L56.139611,5.88128693 C56.1328329,5.60729707 56.1294444,5.34890571 56.1260554,5.10814728 C56.0989443,2.96505841 56.0921668,2.4557357 53.7368962,2.09629358 L53.5552523,2.06848768 L53.5552523,1.25669104 L61.4289723,1.25669104 L61.4289723,2.0664531 L61.2493616,2.09561539 C58.606714,2.53440605 58.6094253,2.83755818 58.6290807,5.1990251 C58.6311143,5.41062123 58.6324697,5.63713755 58.6324697,5.88060875 L58.6324697,10.027757 L66.9914769,10.027757 L66.9914769,5.88060875 C66.9914769,5.63713755 66.9935105,5.40994304 66.9955436,5.19834691 C67.015199,2.83755818 67.018588,2.53440605 64.3752627,2.09561539 L64.1956525,2.0664531 Z M27.932621,1.25330007 L27.932621,1.25262188 L27.932621,1.25601285 L35.2227761,1.25601285 L35.2227761,2.07052226 L35.0404544,2.09764996 C32.6845062,2.45709209 32.6777284,2.9657366 32.6506174,5.10882547 C32.6485841,5.34890571 32.6445174,5.60865349 32.6370619,5.88671248 L32.6370619,15.3312238 C32.6436204,15.5898015 32.648139,15.848427 32.6506174,16.1070762 C32.6784062,18.2501651 32.685184,18.7588096 35.0404544,19.1182517 L35.2220983,19.1453794 L35.2220983,19.9571761 L27.5591666,19.9571761 L27.5591666,19.1447012 L27.7414882,19.1175735 C30.0960809,18.7581314 30.1028587,18.2488087 30.1313253,16.1057198 C30.1333586,15.8649614 30.1374253,15.60657 30.1448808,15.3271546 L30.1448808,5.88196512 C30.1367475,5.60797531 30.1333586,5.34958389 30.1313253,5.10882547 C30.1028587,2.9657366 30.0960809,2.45709209 27.7414882,2.09764996 L27.5923776,2.07526961 C24.8446751,2.61104182 24.8229863,3.61205422 24.7796086,6.78870875 C24.7748642,7.09118267 24.769442,7.41264603 24.7626642,7.75174235 L24.7626642,21.1684282 C24.769442,21.5027772 24.7741864,21.8235623 24.7796086,22.1267145 C24.8243418,25.3684755 24.8378973,26.3457511 27.7563993,26.8740632 L27.932621,26.9052601 L27.932621,27.6614449 L18.4302062,27.6614449 L18.4302062,26.9079729 L18.6050723,26.8740632 C21.8766955,26.2304583 21.8733065,25.4973321 21.8570399,21.9734429 C21.8563622,21.7191206 21.8550066,21.4505563 21.8550066,21.1684282 L21.8550066,7.74563861 C21.8550066,7.46351045 21.8556844,7.19562437 21.8570399,6.94130208 C21.8733065,3.41673473 21.8760177,2.68428663 18.6050723,2.04000358 L18.4302062,2.00609395 L18.4302062,1.25330007 L27.932621,1.25330007 Z M134.351534,4.24819896 L134.351534,4.24887715 C137.525557,7.37670181 138,12.0175743 138,14.5065414 C138,16.4454943 137.648912,21.312205 134.401011,24.6150034 C132.366329,26.6848475 129.593549,27.7333333 126.157903,27.7333333 L125.948471,27.731977 L117.973763,27.6533066 L117.973763,26.8564302 L118.149984,26.823877 C120.945809,26.2982776 120.957331,25.3366004 120.998675,22.149773 C121.002742,21.8384826 121.006808,21.5088809 121.013586,21.1582553 L121.013586,7.88941547 C120.934964,4.09153645 120.899042,2.72972554 118.272661,2.11935213 C116.685989,2.28347476 116.008213,3.10069694 115.952635,4.89451658 C115.862491,7.82702176 115.741847,14.3444534 115.85978,20.1633466 L115.862491,20.3376421 L115.255882,20.4970174 L115.170482,20.3817246 C112.670168,17.0043251 109.935343,13.737471 107.289984,10.5777713 C106.091,9.14475013 104.854737,7.66764645 103.648974,6.19054277 L103.648974,10.5262286 C103.648974,11.3122539 103.641518,12.0236781 103.636096,12.6693175 C103.592041,17.4729563 103.58323,18.4726123 106.418365,19.1209645 L106.585098,19.1589433 L106.585098,19.9564979 L93.72566,19.9564979 L93.72566,19.1630124 L93.8869708,19.1209645 C94.8365344,18.8720677 95.3299555,18.5641683 95.2093114,17.6452172 C95.1001893,16.8144311 92.4202646,8.78937717 90.8491806,4.15935572 C90.2181975,6.12187643 89.5991514,8.08821941 88.992075,10.0582757 C89.4575559,10.1272435 89.9255899,10.1776956 90.3950707,10.2095126 L90.7183694,10.2278238 C91.276857,10.2617335 91.6801331,10.2868266 91.9519214,10.1898451 C92.130854,10.1342332 92.3443533,10.0677703 92.460253,10.2359621 C92.5741196,10.4000848 92.4521196,10.5750585 92.3538422,10.7154444 C92.1111986,11.0606444 91.4002119,11.527241 91.0389573,11.6730524 C90.7359917,11.8141165 90.5123258,11.8670155 90.315771,11.914489 C89.7579616,12.048093 89.0361307,12.0331727 88.4125766,11.9599279 C87.5951796,14.6754114 86.9350261,17.0226363 86.9350261,17.5075441 C86.9350261,18.8049267 87.6189017,18.9147939 88.5650762,19.0680654 C88.6640319,19.0836639 88.7643423,19.0992623 88.8639757,19.1175735 L89.0408751,19.1487703 L89.0408751,19.9571761 L72.7227479,19.9571761 L72.7227479,19.144023 L72.9057477,19.1168953 C75.26034,18.7574532 75.2671181,18.2488087 75.2942287,16.1057198 C75.2976177,15.8649614 75.3010067,15.60657 75.3077842,15.3271546 L75.3077842,5.87993056 C75.3010067,5.60729707 75.2976177,5.34822747 75.2949069,5.10679089 C75.2671181,2.96370202 75.26034,2.45505751 72.9057477,2.09561539 L72.7234256,2.06848768 L72.7234256,1.25669104 L80.3863575,1.25669104 L80.3863575,2.06848768 L80.204036,2.09561539 C77.7803099,2.46590859 77.7836989,3.00846274 77.7992876,5.28990292 C77.7999653,5.47640592 77.8013212,5.67308176 77.8013212,5.87993056 L77.8013212,14.6889753 C77.8013212,15.4790698 77.8013212,17.8005233 78.0758203,18.5275459 L80.2989244,18.5858705 C83.2465707,18.2447395 84.5133337,17.806627 86.0193512,14.5390947 L86.0681508,14.434653 L86.9628149,11.7598611 C86.5968159,11.7266297 86.1359286,11.6954328 85.4988195,11.6615231 C83.2574149,11.5394485 82.3146294,12.0358855 82.1478965,12.136258 C82.0001413,12.2271358 81.8279863,12.3159791 81.6802311,12.3159791 C81.599761,12.3183709 81.5225265,12.2842173 81.4701207,12.2230667 C81.3040656,12.03046 81.4931651,11.7768159 81.5636537,11.681869 C82.48204,10.3804172 84.3635448,9.67170581 86.6083379,9.79513691 C87.0041588,9.81616085 87.3179692,9.84125403 87.596535,9.87041627 L89.6664617,3.68733361 C89.7030617,3.5679717 89.7437283,3.44386244 89.784395,3.32246595 C89.9579054,2.79754481 90.1083714,2.34383391 89.9375723,2.00745034 L89.8331946,1.80195796 L90.0392382,1.70565459 C90.932547,1.28992248 91.5730446,0.824682299 91.9410772,0.323497909 L92.1789764,0 L97.8045143,16.1186054 C97.9163472,16.3831006 98.0139469,16.6516649 98.1068022,16.905309 C98.5168564,18.0243269 98.7940668,18.7723734 100.123863,19.0931586 C102.445244,18.7533841 102.4222,17.1603094 102.344934,13.0368979 C102.3307,12.2529072 102.313756,11.3637966 102.313756,10.3919465 L102.313756,6.36416011 C102.313756,3.75108372 102.16939,2.81043047 99.321376,2.09290261 L99.1587099,2.05221106 L99.1587099,1.25669104 L103.346008,1.25669104 L103.409041,1.3346832 L114.626229,14.9148134 L114.515751,5.72258987 C114.492707,3.23497909 114.233118,2.60222532 111.727382,2.094259 L111.555227,2.06034937 L111.555227,1.25669104 L118.45295,1.25669104 L118.45295,1.25804742 L124.588853,1.12783443 C128.778862,0.938618672 132.060652,1.98981733 134.351534,4.24819896 Z M45.6273102,10.8273462 L45.6279881,10.8266679 L45.6279881,10.0128367 L52.6361884,10.0128367 L52.6361884,10.8117477 L52.4701334,10.8504047 C51.2162484,11.1386366 51.2250595,11.5645416 51.2521705,12.8286927 C51.2548816,13.0145175 51.259626,13.2139062 51.259626,13.4282151 L51.259626,13.4288933 L51.2406483,18.7622005 L51.114582,18.8198469 C49.1788548,19.6960718 47.4220602,20.2799958 45.1399896,20.2799958 C39.7774285,20.2799958 36.0313624,16.3905607 36.0313624,10.8212425 C36.0313624,7.97961509 37.0764925,5.41265579 38.9742643,3.59170844 C40.7602032,1.87723734 43.132418,0.934549515 45.6537435,0.934549515 C47.4647601,0.934549515 49.3801541,1.30145175 51.1911707,1.99592106 L51.3335036,2.05017647 L51.2318372,7.09389547 L50.5432172,7.09389547 L50.5093284,6.91553077 C49.9501635,3.93216117 48.1987911,2.35468499 45.4429553,2.35468499 C41.631145,2.35468499 39.1667526,5.28854653 39.1667526,9.82836832 C39.1667526,14.9873801 42.3428094,18.5906178 46.8906841,18.5906178 C47.8409256,18.5906178 48.3397685,18.4597266 48.5566567,18.1525053 C48.7782893,17.8398585 48.7782893,17.2688203 48.7782893,16.4773694 L48.7782893,14.2881634 C48.7782893,11.3916025 48.1635468,11.1854319 45.8116652,10.8537957 L45.6273102,10.8273462 Z M21.1453755,10.9650193 C20.6926213,11.5543687 19.3445255,12.3505669 18.6579388,12.6001418 C18.0777628,12.8429348 17.666353,12.9304217 17.2684987,13.0151957 C15.8641475,13.3136005 13.9040203,13.1643981 12.5389801,12.9249961 C12.0109195,12.8343386 11.4793064,12.7657814 10.9455295,12.7195037 L10.9455295,21.16775 C10.9455295,21.4505563 10.944174,21.7184425 10.9428184,21.9734429 C10.9272296,25.4966539 10.9238407,26.229102 14.1961416,26.873385 L14.3696522,26.9079729 L14.3696522,27.6607667 L4.86723737,27.6607667 L4.86723737,26.9052601 L5.04345904,26.873385 C7.96196103,26.3443947 7.97551659,25.3671191 8.02092752,22.1260363 C8.02567199,21.8235623 8.03041641,21.502099 8.03719413,21.1630026 L8.03719413,12.5194369 L7.85351694,12.509264 C3.37206425,12.266471 1.47768127,13.1684673 1.14353787,13.3522575 C0.749750208,13.568601 0.501684316,13.639133 0.339018156,13.639133 C0.190585286,13.639133 0.114674411,13.5801302 0.0665523394,13.5190929 C-0.127969276,13.2708744 0.1539854,12.9256743 0.274629468,12.7785065 C2.19612347,10.2997123 5.68531261,9.66221115 8.03719413,9.53335451 L8.03719413,7.74563861 C8.0297386,7.41061141 8.02567199,7.09050448 8.02092752,6.78735237 C7.97551659,3.54559134 7.96196103,2.56763749 5.04345904,2.04000358 L4.86723737,2.00745034 L4.86723737,1.25330007 L14.3689744,1.25330007 L14.3689744,2.00609395 L14.1961416,2.04000358 C10.9238407,2.68360844 10.9272296,3.41673473 10.9428184,6.94062389 C10.944174,7.19494619 10.9455295,7.46283227 10.9455295,7.7463168 L10.9455295,9.58964453 C11.844457,9.65110069 12.7403769,9.75065829 13.6308767,9.88804928 L14.0714309,9.94569568 C15.3246381,10.1098183 16.4063681,10.2515606 17.4528537,10.3092069 L18.0831851,10.3458293 C19.2089704,10.4136486 20.0216235,10.4618003 20.6004439,10.2786883 C20.9840649,10.1722121 21.2402641,10.1179566 21.3649748,10.3125979 C21.4930744,10.5126647 21.316175,10.7425721 21.1453755,10.9650193 Z M127.306734,25.9991947 L127.306055,25.9991947 C130.747123,25.9991947 134.4227,23.1304396 134.4227,15.0802925 C134.4227,10.8965218 133.359948,7.68799221 131.26291,5.5428688 C129.447149,3.68529903 126.879735,2.69378133 123.829744,2.6686882 L123.829744,21.5448251 C123.829744,23.9822496 124.090688,25.9991947 127.306734,25.9991947 Z" id="Combined-Shape"></path>
            <path d="M28.3569876,22.9333333 L118.201152,22.9333333 L115.09584,27.5562685 L118.209302,32 L28.3488372,32 L31.4595824,27.5530221 L28.3569876,22.9333333 Z M45.0320765,29.0658646 L45.0320765,25.258436 L44.3100847,25.258436 L44.3100847,26.9154206 L41.8948423,26.9154206 L41.8948423,25.258436 L41.1728506,25.258436 L41.1728506,29.0658646 L41.8948423,29.0658646 L41.8948423,27.3965435 L44.3100847,27.3965435 L44.3100847,29.0652153 L45.0320765,29.0658646 Z M58.6595857,25.2038957 C57.2026977,25.2038957 56.416861,26.212241 56.416861,27.161501 C56.416861,28.1114103 57.2026977,29.1204049 58.660265,29.1204049 C60.1137574,29.1204049 60.8975563,28.1114103 60.8975563,27.161501 C60.8975563,26.2128903 60.1137574,25.2038957 58.660265,25.2038957 L58.6595857,25.2038957 Z M58.660265,28.5788981 C57.7684726,28.5788981 57.170096,28.009472 57.170096,27.161501 C57.170096,26.3141793 57.7677938,25.7447532 58.660265,25.7447532 C59.547982,25.7447532 60.1443212,26.3141793 60.1443212,27.161501 C60.1443212,28.0101213 59.547982,28.5795474 58.660265,28.5795474 L58.660265,28.5788981 Z M76.4736965,29.0658646 L76.4736965,25.258436 L75.7985695,25.258436 L74.3776792,26.8725676 L72.9567884,25.258436 L72.2823407,25.258436 L72.2823407,29.0658646 L73.0043326,29.0658646 L73.0043326,26.2187339 L74.3831126,27.7835195 L75.7517046,26.2187339 L75.7517046,29.0658646 L76.4736965,29.0658646 Z M90.6778482,27.316681 L90.6778482,26.8797097 L88.7652153,26.8797097 L88.7652153,25.6960565 L90.77022,25.6960565 L90.77022,25.258436 L88.0425446,25.258436 L88.0425446,29.0652153 L90.8136889,29.0652153 L90.8136889,28.6282441 L88.7652153,28.6282441 L88.7652153,27.316681 L90.6778482,27.316681 Z M104.926148,28.0270028 C104.926148,27.2699322 104.242871,27.0225532 103.639061,26.8043923 C103.202333,26.6472644 102.790737,26.497928 102.790737,26.1395207 C102.790737,25.8369522 103.096378,25.6415163 103.567744,25.6415163 C103.899874,25.6415163 104.230645,25.7213788 104.735293,25.9272033 L104.735293,25.4714027 C104.270718,25.2844075 103.889007,25.2038957 103.475373,25.2038957 C102.603278,25.2038957 102.038861,25.6064547 102.038861,26.2297718 C102.038861,27.0024253 102.711271,27.2400649 103.303535,27.4497852 C103.751808,27.6075623 104.172913,27.7562494 104.172913,28.1419269 C104.172913,28.2691874 104.117219,28.682135 103.395906,28.682135 C102.972084,28.682135 102.61822,28.5737038 102.125119,28.2808746 L102.125119,28.7834241 C102.509548,28.9762628 102.837602,29.1204049 103.476052,29.1204049 C104.356977,29.1204049 104.926148,28.6912251 104.926148,28.0270028 Z" id="Combined-Shape"></path>
        </g>
    </g>
</svg>
